.icons/Colloid-dark/actions/22/edit-copy-path.svg

<svg version="1.1" viewBox="0 0 22 22" xmlns="http://www.w3.org/2000/svg">
 <defs>
  <style id="current-color-scheme" type="text/css">.ColorScheme-Text {
                color:#dedede;
            }</style>
 </defs>
 <path class="ColorScheme-Text" d="m2 3v1h2v14h-2v1h5v-1h-2v-14h2v-1zm11 3-4 10h1l4-10zm3 0-4 10h1l4-10zm-9 9v1h1v-1z" fill="currentColor"/>
 <path class="ColorScheme-Text" d="m8 4v1h10c0.554 0 1 0.446 1 1v10c0 0.554-0.446 1-1 1h-10v1h10c1.108 0 2-0.892 2-2v-10c0-1.108-0.892-2-2-2h-10z" fill="currentColor"/>
</svg>

<!DOCTYPE svg>
<svg viewBox="0 0 22 22" version="1.1" xmlns="http://www.w3.org/2000/svg">
    <defs>
        <style type="text/css" id="current-color-scheme">
            .ColorScheme-Text {
                color:#dedede;
            }
        </style>
    </defs>
    <path class="ColorScheme-Text" 
          style="fill:currentColor; fill-opacity:1; stroke:none" 
          d="M 2 3 L 2 4 L 4 4 L 4 18 L 2 18 L 2 19 L 7 19 L 7 18 L 5 18 L 5 4 L 7 4 L 7 3 L 2 3 z M 8 4 L 8 5 L 18 5 L 18 17 L 8 17 L 8 18 L 19 18 L 19 4 L 8 4 z M 13 6 L 9 16 L 10 16 L 14 6 L 13 6 z M 16 6 L 12 16 L 13 16 L 17 6 L 16 6 z M 7 15 L 7 16 L 8 16 L 8 15 L 7 15 z "
    />
</svg>
